public/logo.svg

<?xml version="1.0" encoding="UTF-8"?>
<svg width="840px" height="400px" viewBox="0 0 840 400" version="1.1" xmlns="http://www.w3.org/2000/svg" xmlns:xlink="http://www.w3.org/1999/xlink" style="background: #FFFFFF;">
    <!-- Generator: Sketch 39.1 (31720) - http://www.bohemiancoding.com/sketch -->
    <title>Rectangle 2</title>
    <desc>Created with Sketch.</desc>
    <defs>
        <rect id="path-1" x="0" y="128" width="840" height="400"></rect>
        <mask id="mask-2" maskContentUnits="userSpaceOnUse" maskUnits="objectBoundingBox" x="0" y="0" width="840" height="400" fill="white">
            <use xlink:href="#path-1"></use>
        </mask>
        <path d="M249.994465,384.168039 C242.226473,374.893296 237.524528,362.940944 237.524528,349.893385 L237.54635,265.081503 C237.54635,258.165065 243.139896,252.540751 250.016287,252.540751 C256.891899,252.540751 262.486224,258.165065 262.486224,265.081503 L262.464402,349.893385 C262.464402,362.940944 257.762456,374.893296 249.994465,384.168039 L249.994465,384.168039 Z M343.518993,349.893385 C343.518993,379.28354 320.007706,403.192951 290.784408,403.192951 C279.013567,403.192951 268.032229,399.266366 259.226894,392.712382 C269.072689,381.1876 274.934339,366.243041 274.934339,349.893385 L274.956161,265.081503 C274.956161,251.251765 263.76751,240 250.016287,240 C236.264285,240 225.076413,251.251765 225.076413,265.081503 L225.054591,349.893385 C225.054591,366.243041 231.309823,381.1876 241.155618,392.712382 C232.350283,399.266366 221.368945,403.192951 209.598104,403.192951 C180.374806,403.192951 156.469937,379.28354 156.469937,349.893385 L156.469937,246.430813 L144,246.430813 L144,349.893385 C144,386.19684 173.630129,415.733702 209.729817,415.733702 C225.034327,415.733702 239.228233,410.38476 250.388047,401.501499 C261.547861,410.38476 275.414431,415.733702 290.718941,415.733702 C326.81785,415.733702 355.989709,386.19684 355.989709,349.893385 L355.989709,246.430813 L343.518993,246.430813 L343.518993,349.893385 Z M393.419862,412.4116 L405.889799,412.4116 L405.889799,246.090718 L393.419862,246.090718 L393.419862,412.4116 Z M515.062383,243.19085 C490.4553,243.19085 468.703833,255.712773 455.768612,274.751807 L455.768612,246.091267 L443.298674,246.091267 L443.298674,412.412149 L455.768612,412.412149 L455.768612,315.374113 L455.775626,315.374113 C455.775626,282.499849 482.371663,255.755922 515.062383,255.755922 L515.062383,243.19085 Z M538.43385,376.993176 C514.17047,348.04942 515.574118,304.58789 542.653365,277.32931 C569.732613,250.070729 612.908211,248.657786 641.661548,273.081851 L538.43385,376.993176 Z M659.325214,273.053608 C657.973784,271.481405 656.560005,269.946075 655.077641,268.45311 C621.651196,234.805297 567.262007,234.805297 533.835561,268.45311 C500.409116,302.100922 500.409116,356.850305 533.835561,390.498117 C567.257331,424.140439 621.634829,424.145146 655.062833,390.512239 L646.245029,381.636039 C619.165002,408.880498 575.999536,410.288733 547.251655,385.869376 L598.850695,333.927835 L659.325214,273.053608 Z M670.85445,247.519822 L675.217369,247.519822 L675.217369,258.828858 L676.546197,258.828858 L676.546197,247.519822 L680.927821,247.519822 L680.927821,246.276338 L670.85445,246.276338 L670.85445,247.519822 Z M694.034426,246.276024 L689.690212,257.170042 L685.365482,246.276024 L683.324309,246.276024 L683.324309,258.828544 L684.597022,258.828544 L684.597022,247.614437 L689.053466,258.828544 L690.270064,258.828544 L694.707803,247.652094 L694.707803,258.828544 L696,258.828544 L696,246.276024 L694.034426,246.276024 Z" id="path-3"></path>
    </defs>
    <g id="M-—-Layout" stroke="none" stroke-width="1" fill="none" fill-rule="evenodd">
        <g id="✅-M-—-Logo" transform="translate(-180.000000, -512.000000)">
            <g id="Logo" transform="translate(180.000000, 384.000000)">
                <use id="Rectangle-2" stroke="#F1F4F5" mask="url(#mask-2)" stroke-width="2" fill="#FFFFFF" xlink:href="#path-1"></use>
                <g>
                    <use fill="#8D989F" xlink:href="#path-3"></use>
                    <use fill-opacity="0.72" fill="#000000" xlink:href="#path-3"></use>
                </g>
            </g>
        </g>
    </g>
</svg>

<svg xmlns="http://www.w3.org/2000/svg" width="840" height="400" viewBox="0 0 840 400" xmlns:xlink="http://www.w3.org/1999/xlink" style="background:#FFFFFF">
  <defs>
    <path id="a" d="M0 128h840v400H0z"/>
    <mask id="b" width="840" height="400" x="0" y="0" fill="#fff">
      <use xlink:href="#a"/>
    </mask>
    <path id="c" d="M249.994 384.168c-7.768-9.275-12.47-21.227-12.47-34.275l.022-84.81c0-6.918 5.594-12.542 12.47-12.542s12.47 5.63 12.47 12.55l-.022 84.81c0 13.05-4.702 25-12.47 34.278zm93.525-34.275c0 29.39-23.52 53.3-52.74 53.3-11.77 0-22.75-3.927-31.56-10.48 9.843-11.525 15.704-26.47 15.704-42.82l.022-84.81c0-13.83-11.19-25.083-24.94-25.083s-24.94 11.252-24.94 25.082l-.02 84.81c0 16.35 6.253 31.296 16.1 42.82-8.807 6.554-19.788 10.48-31.56 10.48-29.222 0-53.127-23.908-53.127-53.3v-103.46H144v103.46c0 36.305 29.63 65.842 65.73 65.842 15.304 0 29.498-5.35 40.658-14.233 11.16 8.89 25.026 14.24 40.33 14.24 36.1 0 65.272-29.533 65.272-65.84V246.43h-12.47v103.463zm49.9 62.52h12.47V246.09h-12.47v166.322zM515.06 243.19c-24.607 0-46.358 12.523-59.293 31.562v-28.66H443.3v166.32h12.47v-97.038h.006c0-32.874 26.596-59.618 59.286-59.618V243.19zm23.372 133.803c-24.264-28.944-22.86-72.405 4.22-99.664 27.08-27.26 70.254-28.68 99.008-4.25L538.434 376.99zm120.89-103.94c-1.35-1.572-2.764-3.107-4.246-4.6-33.427-33.648-87.816-33.648-121.242 0-33.427 33.648-33.427 88.397 0 122.045 33.42 33.642 87.8 33.647 121.227.014l-8.81-8.876c-27.08 27.244-70.25 28.654-99 4.234l51.6-51.945 60.476-60.874zm11.53-25.533h4.363v11.31h1.33v-11.31h4.38v-1.244h-10.073v1.244zm23.18-1.244l-4.344 10.894-4.325-10.894h-2.04v12.553h1.272v-11.22l4.456 11.21h1.22l4.44-11.18v11.176H696v-12.55h-1.966z"/>
  </defs>
  <g fill="none" fill-rule="evenodd" transform="translate(0 -128)">
    <use fill="#FFF" stroke="#F1F4F5" stroke-width="2" mask="url(#b)" xlink:href="#a"/>
    <use fill="#8D989F" xlink:href="#c"/>
    <use fill="#000" fill-opacity=".72" xlink:href="#c"/>
  </g>
</svg>
